dist/icons/svgs/chevron-left-outline.svg

<svg xmlns="http://www.w3.org/2000/svg" width="24" height="24" fill="currentcolor" class="icon-chevron-left-outline" viewBox="0 0 24 24">
  <path d="M6.83594 11.3359L14.3359 3.875C14.6875 3.48438 15.2734 3.48438 15.6641 3.875C16.0156 4.22656 16.0156 4.8125 15.6641 5.16406L8.78906 12L15.625 18.875C16.0156 19.2266 16.0156 19.8125 15.625 20.1641C15.2734 20.5547 14.6875 20.5547 14.3359 20.1641L6.83594 12.6641C6.44531 12.3125 6.44531 11.7266 6.83594 11.3359Z"/>
</svg>

<svg xmlns="http://www.w3.org/2000/svg" width="24" height="24" fill="currentColor" class="icon-chevron-left-outline" viewBox="0 0 24 24">
  <path d="m6.836 11.336 7.5-7.461c.351-.39.937-.39 1.328 0a.92.92 0 0 1 0 1.29L8.79 12l6.836 6.875c.39.352.39.938 0 1.29a.856.856 0 0 1-1.29 0l-7.5-7.5c-.39-.352-.39-.938 0-1.33"/>
</svg>
